themes/strudel/source/images/strudel.svg

<svg xmlns="http://www.w3.org/2000/svg" width="189" height="41" viewBox="0 0 189 41" xmlns:xlink="http://www.w3.org/1999/xlink">
  <defs>
    <ellipse id="a" cx="20.115" cy="19.894" rx="20.115" ry="19.894"/>
  </defs>
  <g fill="none" fill-rule="evenodd">
    <g transform="translate(.59 .606)">
      <mask id="b" fill="white">
        <use xlink:href="#a"/>
      </mask>
      <path fill="#FFDA5C" d="M22.7416805,-0.048028344 C32.6690908,1.16048956 40.4512757,9.77921677 40.3154964,19.9152331 C40.1650528,31.1405505 31.1507727,39.9994481 19.9902641,39.8905309 C8.6868341,39.7804233 -0.363552443,30.6783964 -0.192949392,19.5920525 C-0.0283808325,8.88755437 8.2451727,0.507546592 18.9513484,-0.15129358 C19.3529465,-0.227943468 19.7599473,-0.292069196 20.1720483,-0.343151027 C21.3780042,-0.492837798 22.6026152,-0.49551609 23.8185004,-0.566342037 C23.8320404,-0.417548031 23.8458812,-0.268754024 23.8594211,-0.119960017 C23.4843417,-0.104855675 23.1117533,-0.0809048488 22.7416805,-0.048028344 Z M22.7416805,-0.048028344 C22.0434992,-0.133021769 21.3347074,-0.181363423 20.6173131,-0.191003433 C20.0561015,-0.198568378 19.5005246,-0.185088967 18.9513484,-0.15129358 C6.53664626,2.21820339 -0.715054165,16.5561495 6.13656235,27.5087063 C11.7011705,36.4039096 23.7261281,38.2891297 31.1414935,31.3773505 C37.8958097,25.0815785 37.0102986,14.4523298 29.3539225,9.92363543 C23.1986728,6.28264609 15.3855345,8.8966592 13.244421,15.3135495 C11.2946719,21.156095 15.554934,26.8358598 21.4050841,26.1927721 C24.2520789,25.8797095 26.4702195,23.4234181 26.3179705,20.7513753 C26.2060405,18.7849137 24.6859583,17.2395392 22.9931668,17.5032021 C22.4756408,17.5838485 21.8840965,17.9724984 21.5931386,18.3983469 C21.4327657,18.6331438 21.7396707,19.2949796 21.9873008,19.665179 C22.693784,20.7216165 22.4924905,21.5090344 21.306694,21.9899366 C19.7053722,22.6392737 17.6698702,21.6119998 17.0214582,19.7407664 C16.3158777,17.7046692 16.7151551,15.8143902 18.1145815,14.1812271 C21.0136298,10.7976514 26.8710012,11.0259014 30.094406,14.6189791 C34.7407064,19.7976057 32.8165326,28.3529635 26.2683241,31.6320858 C19.7168059,34.9126961 11.5660721,32.5412172 7.64430819,26.2130081 C2.63453605,18.1302201 5.82424142,7.09357342 14.5265015,2.4020984 C17.1029735,1.01333499 19.8452822,0.209281699 22.7416805,-0.048028344 Z" mask="url(#b)"/>
    </g>
    <path fill="#534227" d="M57.0865801,21.9100529 C56.1521518,21.5521868 55.4960737,21.1843854 55.1183261,20.8066378 L55.1332371,20.8066378 C54.3777419,20.0412019 54,19.1415796 54,18.1077441 C54,17.3522489 54.2012967,16.6688342 54.6038961,16.0574796 C55.0064955,15.4461249 55.530861,14.9267297 56.1770082,14.4992785 C56.8231554,14.0718273 57.5513027,13.7413031 58.3614719,13.507696 C59.1716411,13.2740889 59.9842832,13.1572872 60.7994228,13.1572872 C63.2846044,13.1572872 65.4168582,14.1563152 67.1962482,16.1544012 C67.4050034,16.41286 67.5093795,16.7259882 67.5093795,17.0937951 C67.5093795,17.5411278 67.362756,17.9114143 67.0695046,18.2046657 C66.7762531,18.4979171 66.4059666,18.6445406 65.958634,18.6445406 C65.6405307,18.6445406 65.36965,18.5550754 65.1459836,18.3761424 C64.9223173,18.1972093 64.7061097,18.003368 64.4973545,17.7946128 C63.4834004,16.7806587 62.2507688,16.2736893 60.7994228,16.2736893 C59.3679582,16.2736893 58.2247918,16.7110747 57.3698894,17.5858586 C57.2108377,17.7449102 57.1313131,17.9636029 57.1313131,18.2419432 C57.1313131,18.5202836 57.2605406,18.7091545 57.5189995,18.8085618 L64.4973545,21.1048581 C65.4715457,21.4826057 66.1276238,21.8504071 66.4656085,22.2082732 L66.4506975,22.2082732 C67.2061927,22.9737091 67.5839346,23.8733314 67.5839346,24.9071669 C67.5839346,25.6726028 67.3826379,26.3585027 66.9800385,26.964887 C66.5774391,27.5712713 66.0530736,28.0906664 65.4069264,28.523088 C64.7607792,28.9555096 64.0351171,29.2860338 63.2299182,29.5146705 C62.4247194,29.7433072 61.6145624,29.8576239 60.7994228,29.8576239 C58.2943598,29.8576239 56.162106,28.8685364 54.4025974,26.8903319 C54.1839014,26.6020508 54.0745551,26.2789821 54.0745551,25.9211159 C54.0745551,25.4737832 54.2211786,25.1034967 54.51443,24.8102453 C54.8076814,24.5169939 55.1779679,24.3703704 55.6253006,24.3703704 C55.9533446,24.3703704 56.2316808,24.467291 56.4603175,24.6611352 C56.6889542,24.8549793 56.8977063,25.0413651 57.0865801,25.2202982 C58.1005342,26.2342523 59.338136,26.7412217 60.7994228,26.7412217 C62.2209467,26.7412217 63.364113,26.2938958 64.2289562,25.3992304 C64.3780671,25.2302381 64.4526215,25.0264562 64.4526215,24.7878788 C64.4526215,24.5095385 64.3184237,24.3156972 64.0500241,24.2063492 L57.0865801,21.9100529 Z M71.3116883,13.1572872 L72.012506,13.1572872 L72.012506,7.55074555 C72.012506,7.12329432 72.1640998,6.75797811 72.467292,6.45478595 C72.7704841,6.1515938 73.1407706,6 73.5781626,6 C74.0056138,6 74.37093,6.1515938 74.6741222,6.45478595 C74.9773143,6.75797811 75.1289081,7.12329432 75.1289081,7.55074555 L75.1289081,13.1572872 L76.992785,13.1572872 C77.4202362,13.1572872 77.7830673,13.308881 78.0812891,13.6120731 C78.3795109,13.9152653 78.5286195,14.2805815 78.5286195,14.7080327 C78.5286195,15.1454247 78.3795109,15.5157112 78.0812891,15.8189033 C77.7830673,16.1220955 77.4202362,16.2736893 76.992785,16.2736893 L75.1289081,16.2736893 L75.1289081,23.7739298 C75.1289081,25.7521343 76.1229658,26.7412217 78.1111111,26.7412217 C78.5385623,26.7412217 78.9013934,26.8928155 79.1996152,27.1960077 C79.497837,27.4991998 79.6469456,27.8645161 79.6469456,28.2919673 C79.6469456,28.7293592 79.497837,29.0996458 79.1996152,29.4028379 C78.9013934,29.7060301 78.5385623,29.8576239 78.1111111,29.8576239 C74.0453541,29.8576239 72.012506,27.8297461 72.012506,23.7739298 L72.012506,16.2736893 L71.3116883,16.2736893 C70.8941778,16.2736893 70.5338319,16.1220955 70.2306397,15.8189033 C69.9274476,15.5157112 69.7758538,15.1454247 69.7758538,14.7080327 C69.7758538,14.2805815 69.9274476,13.9152653 70.2306397,13.6120731 C70.5338319,13.308881 70.8941778,13.1572872 71.3116883,13.1572872 Z M84.8359788,14.7080327 L84.8359788,15.006253 C85.5815333,14.4098094 86.3916904,13.9525429 87.2664743,13.6344396 C88.1412582,13.3163364 89.0756724,13.1572872 90.0697451,13.1572872 C90.507137,13.1572872 90.9768293,13.1871089 91.478836,13.2467532 C91.9808427,13.3063976 92.4430795,13.4132588 92.8655604,13.5673401 C93.2880412,13.7214213 93.6384466,13.9326586 93.9167869,14.2010582 C94.1951273,14.4694578 94.3342953,14.817378 94.3342953,15.2448292 C94.3342953,15.4635252 94.2920479,15.6673071 94.2075517,15.8561809 C94.1230555,16.0450547 94.011224,16.2115593 93.8720539,16.3556999 C93.7328837,16.4998404 93.5688642,16.6116719 93.3799904,16.6911977 C93.1911166,16.7707235 92.9873347,16.8104858 92.7686388,16.8104858 C92.579765,16.8104858 92.3610723,16.7558126 92.1125541,16.6464646 C91.4862884,16.3979465 90.8053588,16.2736893 90.0697451,16.2736893 C89.344072,16.2736893 88.6631425,16.4103722 88.026936,16.6837422 C87.3907295,16.9571122 86.8365424,17.3298838 86.3643579,17.8020683 C85.8921734,18.2742528 85.5194017,18.82844 85.2460317,19.4646465 C84.9726618,20.1008529 84.8359788,20.7817825 84.8359788,21.5074555 L84.8359788,28.3068783 C84.8359788,28.7343295 84.684385,29.0996458 84.3811929,29.4028379 C84.0780007,29.7060301 83.7126845,29.8576239 83.2852333,29.8576239 C82.8478413,29.8576239 82.4775548,29.7060301 82.1743627,29.4028379 C81.8711705,29.0996458 81.7195767,28.7343295 81.7195767,28.3068783 L81.7195767,14.7080327 C81.7195767,14.2805815 81.8711705,13.9152653 82.1743627,13.6120731 C82.4775548,13.308881 82.8478413,13.1572872 83.2852333,13.1572872 C83.7126845,13.1572872 84.0780007,13.308881 84.3811929,13.6120731 C84.684385,13.9152653 84.8359788,14.2805815 84.8359788,14.7080327 Z M110.080327,29.8576239 C109.632994,29.8576239 109.265193,29.7085152 108.976912,29.4102934 C108.688631,29.1120716 108.539522,28.7492406 108.529582,28.3217893 C107.843671,28.8585885 107.118009,29.2487562 106.352573,29.492304 C105.587137,29.7358518 104.757099,29.8576239 103.862434,29.8576239 C102.798776,29.8576239 101.794778,29.6513569 100.850409,29.2388167 C99.9060399,28.8262766 99.0809719,28.2671191 98.3751804,27.5613276 C97.6693888,26.855536 97.1102313,26.0304681 96.6976912,25.0860991 C96.2851511,24.1417301 96.0788841,23.1377318 96.0788841,22.0740741 L96.0788841,14.7080327 C96.0788841,14.2805815 96.2304779,13.9152653 96.53367,13.6120731 C96.8368622,13.308881 97.2071487,13.1572872 97.6445406,13.1572872 C98.0719919,13.1572872 98.4373081,13.308881 98.7405002,13.6120731 C99.0436924,13.9152653 99.1952862,14.2805815 99.1952862,14.7080327 L99.1952862,22.0740741 C99.1952862,22.7202213 99.3170583,23.3265965 99.5606061,23.8932179 C99.8041539,24.4598393 100.137163,24.954383 100.559644,25.3768639 C100.982125,25.7993447 101.476669,26.1323541 102.04329,26.3759019 C102.609911,26.6194497 103.216287,26.7412217 103.862434,26.7412217 C104.49864,26.7412217 105.100045,26.6194497 105.666667,26.3759019 C106.233288,26.1323541 106.730317,25.7968596 107.157768,25.3694084 C107.585219,24.9419571 107.920714,24.4474134 108.164262,23.8857624 C108.407809,23.3241113 108.529582,22.7202213 108.529582,22.0740741 L108.529582,14.7080327 C108.529582,14.2805815 108.681175,13.9152653 108.984367,13.6120731 C109.28756,13.308881 109.657846,13.1572872 110.095238,13.1572872 C110.522689,13.1572872 110.888006,13.308881 111.191198,13.6120731 C111.49439,13.9152653 111.645984,14.2805815 111.645984,14.7080327 L111.645984,28.3068783 C111.645984,28.7343295 111.49439,29.0996458 111.191198,29.4028379 C110.888006,29.7060301 110.517719,29.8576239 110.080327,29.8576239 Z M127.570948,21.5074555 C127.570948,20.7917232 127.434265,20.1182491 127.160895,19.487013 C126.887525,18.8557769 126.514753,18.3015897 126.042569,17.8244348 C125.570384,17.34728 125.016197,16.969538 124.37999,16.6911977 C123.743784,16.4128574 123.062854,16.2736893 122.337181,16.2736893 C121.601568,16.2736893 120.915668,16.4128574 120.279461,16.6911977 C119.643255,16.969538 119.091553,17.3447948 118.624339,17.8169793 C118.157124,18.2891638 117.786838,18.843351 117.513468,19.4795575 C117.240098,20.115764 117.103415,20.7917232 117.103415,21.5074555 C117.103415,22.2231878 117.240098,22.8991471 117.513468,23.5353535 C117.786838,24.17156 118.157124,24.7257472 118.624339,25.1979317 C119.091553,25.6701162 119.643255,26.045373 120.279461,26.3237133 C120.915668,26.6020537 121.601568,26.7412217 122.337181,26.7412217 C123.062854,26.7412217 123.743784,26.6020537 124.37999,26.3237133 C125.016197,26.045373 125.570384,25.6676311 126.042569,25.1904762 C126.514753,24.7133213 126.887525,24.1591341 127.160895,23.527898 C127.434265,22.8966619 127.570948,22.2231878 127.570948,21.5074555 Z M122.337181,13.1572872 C124.315386,13.1572872 126.059957,13.7686327 127.570948,14.991342 L127.570948,7.55074555 C127.570948,7.10341287 127.717571,6.73312637 128.010823,6.43987494 C128.304074,6.14662351 128.67436,6 129.121693,6 C129.559085,6 129.929372,6.14662351 130.232564,6.43987494 C130.535756,6.73312637 130.68735,7.10341287 130.68735,7.55074555 L130.68735,21.5074555 C130.68735,23.8335855 129.872222,25.8018197 128.241943,27.4122174 C126.591783,29.0424965 124.623548,29.8576239 122.337181,29.8576239 C120.030933,29.8576239 118.062699,29.0424965 116.432419,27.4122174 C114.80214,25.7819383 113.987013,23.813704 113.987013,21.5074555 C113.987013,19.201207 114.80214,17.2329727 116.432419,15.6026936 C118.062699,13.9724145 120.030933,13.1572872 122.337181,13.1572872 Z M146.448292,19.95671 C146.2793,19.40997 146.028301,18.910456 145.695286,18.458153 C145.362272,18.0058499 144.974589,17.6181674 144.532227,17.2950938 C144.089865,16.9720202 143.602776,16.7210206 143.070948,16.5420875 C142.539119,16.3631545 141.989902,16.2736893 141.42328,16.2736893 C140.856659,16.2736893 140.304957,16.3631545 139.768158,16.5420875 C139.231359,16.7210206 138.7393,16.9720202 138.291967,17.2950938 C137.844635,17.6181674 137.456952,18.0058499 137.128908,18.458153 C136.800864,18.910456 136.55732,19.40997 136.398268,19.95671 L146.448292,19.95671 Z M145.777297,25.1606542 C146.224629,25.1606542 146.594916,25.3072777 146.888167,25.6005291 C147.181419,25.8937805 147.328042,26.264067 147.328042,26.7113997 C147.328042,27.1487917 147.178934,27.5215633 146.880712,27.8297258 C145.339899,29.1816646 143.520774,29.8576239 141.42328,29.8576239 C139.117032,29.8576239 137.148798,29.0424965 135.518519,27.4122174 C133.888239,25.7819383 133.073112,23.813704 133.073112,21.5074555 C133.073112,19.201207 133.888239,17.2329727 135.518519,15.6026936 C137.148798,13.9724145 139.117032,13.1572872 141.42328,13.1572872 C143.709647,13.1572872 145.677882,13.9724145 147.328042,15.6026936 C148.143182,16.4078924 148.754527,17.3050295 149.162097,18.2941318 C149.569667,19.2832341 149.773449,20.3543313 149.773449,21.5074555 C149.773449,21.9547882 149.621855,22.3250747 149.318663,22.6183261 C149.015471,22.9115775 148.645184,23.0582011 148.207792,23.0582011 L136.398268,23.0582011 C136.567261,23.604941 136.815775,24.104455 137.143819,24.5567581 C137.471863,25.0090611 137.85706,25.3967436 138.299423,25.7198172 C138.741785,26.0428908 139.228873,26.2938904 139.760702,26.4728235 C140.292531,26.6517565 140.846718,26.7412217 141.42328,26.7412217 C142.079368,26.7412217 142.680773,26.641816 143.227513,26.4430014 C143.774253,26.2441869 144.281223,25.9459696 144.748437,25.5483405 C145.046659,25.2998224 145.389608,25.1705949 145.777297,25.1606542 Z M152.010101,28.3068783 L152.010101,7.56565657 C152.010101,7.12826461 152.156725,6.75797811 152.449976,6.45478595 C152.743227,6.1515938 153.113514,6 153.560847,6 C154.008179,6 154.378466,6.1515938 154.671717,6.45478595 C154.964969,6.75797811 155.111592,7.12826461 155.111592,7.56565657 L155.111592,26.7412217 L155.827321,26.7412217 C156.254772,26.7412217 156.620088,26.8928155 156.92328,27.1960077 C157.226473,27.4991998 157.378066,27.8694863 157.378066,28.3068783 C157.378066,28.7343295 157.226473,29.0996458 156.92328,29.4028379 C156.620088,29.7060301 156.254772,29.8576239 155.827321,29.8576239 L153.545936,29.8576239 C153.118484,29.8576239 152.755653,29.7060301 152.457431,29.4028379 C152.15921,29.0996458 152.010101,28.7343295 152.010101,28.3068783 Z M163.238095,27.7402597 C163.238095,28.3267626 163.031828,28.8262766 162.619288,29.2388167 C162.206748,29.6513569 161.707234,29.8576239 161.120731,29.8576239 C160.534228,29.8576239 160.034714,29.6513569 159.622174,29.2388167 C159.209634,28.8262766 159.003367,28.3267626 159.003367,27.7402597 C159.003367,27.1537569 159.209634,26.6542429 159.622174,26.2417027 C160.034714,25.8291626 160.534228,25.6228956 161.120731,25.6228956 C161.707234,25.6228956 162.206748,25.8291626 162.619288,26.2417027 C163.031828,26.6542429 163.238095,27.1537569 163.238095,27.7402597 Z M173.064454,10.1899952 C173.064454,10.6969722 172.885524,11.1293873 172.527658,11.4872535 C172.169791,11.8451196 171.737376,12.02405 171.230399,12.02405 C170.723422,12.02405 170.291007,11.8451196 169.933141,11.4872535 C169.575275,11.1293873 169.396344,10.6969722 169.396344,10.1899952 C169.396344,9.68301815 169.575275,9.25060304 169.933141,8.89273689 C170.291007,8.53487075 170.723422,8.35594036 171.230399,8.35594036 C171.737376,8.35594036 172.169791,8.53487075 172.527658,8.89273689 C172.885524,9.25060304 173.064454,9.68301815 173.064454,10.1899952 Z M172.781145,14.7229437 L172.781145,29.7830688 C172.781145,30.7672007 172.589789,31.6966447 172.207071,32.5714286 C171.824353,33.4462125 171.304958,34.2116369 170.64887,34.8677249 C169.992782,35.5238128 169.227357,36.043208 168.352573,36.4259259 C167.477789,36.8086439 166.548345,37 165.564214,37 C165.116881,37 164.746594,36.8508913 164.453343,36.5526696 C164.160092,36.2544478 164.013468,35.8816761 164.013468,35.4343434 C164.013468,34.9870108 164.160092,34.6167242 164.453343,34.3234728 C164.746594,34.0302214 165.116881,33.8835979 165.564214,33.8835979 C166.130835,33.8835979 166.662656,33.7767367 167.159692,33.5630111 C167.656728,33.3492854 168.091629,33.0560384 168.464406,32.6832612 C168.837183,32.3104839 169.132915,31.8755837 169.351611,31.3785474 C169.570307,30.8815111 169.679654,30.3496902 169.679654,29.7830688 L169.679654,14.7229437 C169.679654,14.2855518 169.831247,13.9152653 170.13444,13.6120731 C170.437632,13.308881 170.802948,13.1572872 171.230399,13.1572872 C171.65785,13.1572872 172.023167,13.308881 172.326359,13.6120731 C172.629551,13.9152653 172.781145,14.2855518 172.781145,14.7229437 Z M178.104377,21.9100529 C177.169949,21.5521868 176.513871,21.1843854 176.136123,20.8066378 L176.151034,20.8066378 C175.395539,20.0412019 175.017797,19.1415796 175.017797,18.1077441 C175.017797,17.3522489 175.219094,16.6688342 175.621693,16.0574796 C176.024293,15.4461249 176.548658,14.9267297 177.194805,14.4992785 C177.840952,14.0718273 178.5691,13.7413031 179.379269,13.507696 C180.189438,13.2740889 181.00208,13.1572872 181.81722,13.1572872 C184.302401,13.1572872 186.434655,14.1563152 188.214045,16.1544012 C188.4228,16.41286 188.527177,16.7259882 188.527177,17.0937951 C188.527177,17.5411278 188.380553,17.9114143 188.087302,18.2046657 C187.79405,18.4979171 187.423764,18.6445406 186.976431,18.6445406 C186.658328,18.6445406 186.387447,18.5550754 186.163781,18.3761424 C185.940114,18.1972093 185.723907,18.003368 185.515152,17.7946128 C184.501197,16.7806587 183.268566,16.2736893 181.81722,16.2736893 C180.385755,16.2736893 179.242589,16.7110747 178.387686,17.5858586 C178.228635,17.7449102 178.14911,17.9636029 178.14911,18.2419432 C178.14911,18.5202836 178.278338,18.7091545 178.536797,18.8085618 L185.515152,21.1048581 C186.489343,21.4826057 187.145421,21.8504071 187.483405,22.2082732 L187.468494,22.2082732 C188.22399,22.9737091 188.601732,23.8733314 188.601732,24.9071669 C188.601732,25.6726028 188.400435,26.3585027 187.997835,26.964887 C187.595236,27.5712713 187.070871,28.0906664 186.424723,28.523088 C185.778576,28.9555096 185.052914,29.2860338 184.247715,29.5146705 C183.442516,29.7433072 182.632359,29.8576239 181.81722,29.8576239 C179.312157,29.8576239 177.179903,28.8685364 175.420394,26.8903319 C175.201698,26.6020508 175.092352,26.2789821 175.092352,25.9211159 C175.092352,25.4737832 175.238976,25.1034967 175.532227,24.8102453 C175.825478,24.5169939 176.195765,24.3703704 176.643098,24.3703704 C176.971142,24.3703704 177.249478,24.467291 177.478114,24.6611352 C177.706751,24.8549793 177.915503,25.0413651 178.104377,25.2202982 C179.118331,26.2342523 180.355933,26.7412217 181.81722,26.7412217 C183.238744,26.7412217 184.38191,26.2938958 185.246753,25.3992304 C185.395864,25.2302381 185.470418,25.0264562 185.470418,24.7878788 C185.470418,24.5095385 185.336221,24.3156972 185.067821,24.2063492 L178.104377,21.9100529 Z"/>
  </g>
</svg>

<svg xmlns="http://www.w3.org/2000/svg" xmlns:xlink="http://www.w3.org/1999/xlink" width="158" height="41"><defs><ellipse id="a" cx="20.115" cy="19.894" rx="20.115" ry="19.894"/></defs><g fill="none" fill-rule="evenodd"><g transform="translate(.59 .606)"><mask id="b" fill="#fff"><use xlink:href="#a"/></mask><path fill="#FFDA5C" fill-rule="nonzero" d="M22.742-.048c9.927 1.208 17.71 9.827 17.573 19.963C40.165 31.141 31.151 40 19.99 39.891 8.687 39.78-.364 30.678-.193 19.592-.028 8.888 8.245.508 18.951-.15a18.7 18.7 0 0 1 1.221-.192c1.206-.15 2.43-.153 3.647-.223l.04.446c-.375.015-.747.04-1.117.072v-.001zm0 0a19.774 19.774 0 0 0-2.125-.143 22.24 22.24 0 0 0-1.666.04C6.537 2.219-.715 16.556 6.137 27.509c5.564 8.895 17.59 10.78 25.004 3.868 6.755-6.295 5.87-16.925-1.787-21.453-6.155-3.641-13.968-1.027-16.11 5.39-1.95 5.842 2.31 11.522 8.161 10.879 2.847-.313 5.065-2.77 4.913-5.442-.112-1.966-1.632-3.511-3.325-3.248-.517.08-1.109.47-1.4.895-.16.235.147.897.394 1.267.707 1.057.505 1.844-.68 2.325-1.602.65-3.637-.378-4.286-2.25-.705-2.035-.306-3.926 1.094-5.559 2.899-3.383 8.756-3.155 11.98.438 4.646 5.179 2.722 13.734-3.827 17.013-6.551 3.28-14.702.91-18.624-5.419-5.01-8.083-1.82-19.12 6.883-23.81a21.057 21.057 0 0 1 8.215-2.451z" mask="url(#b)"/></g><path fill="#534227" fill-rule="nonzero" d="M57.087 21.91c-.935-.358-1.59-.726-1.969-1.103h.015c-.755-.766-1.133-1.665-1.133-2.7 0-.755.201-1.438.604-2.05a5.466 5.466 0 0 1 1.573-1.558 7.894 7.894 0 0 1 2.184-.991 8.761 8.761 0 0 1 2.438-.35c2.486 0 4.618.998 6.397 2.996.209.259.313.572.313.94 0 .447-.146.817-.44 1.11-.293.294-.663.44-1.11.44a1.26 1.26 0 0 1-.813-.268 7.872 7.872 0 0 1-.649-.581c-1.014-1.014-2.246-1.521-3.698-1.521-1.431 0-2.574.437-3.43 1.312-.158.159-.238.378-.238.656s.13.467.388.567l6.978 2.296c.975.378 1.63.745 1.969 1.103h-.015c.755.766 1.133 1.665 1.133 2.7 0 .765-.201 1.45-.604 2.057a5.594 5.594 0 0 1-1.573 1.558 7.633 7.633 0 0 1-2.177.992 8.86 8.86 0 0 1-2.43.343c-2.506 0-4.638-.99-6.397-2.968a1.564 1.564 0 0 1-.328-.969c0-.447.146-.818.44-1.11.293-.294.663-.44 1.11-.44.328 0 .607.096.835.29.229.194.438.38.627.56 1.014 1.013 2.251 1.52 3.712 1.52 1.422 0 2.565-.447 3.43-1.342a.892.892 0 0 0 .224-.611c0-.278-.135-.472-.403-.582l-6.963-2.296zm14.225-8.753h.7V7.551c0-.428.152-.793.455-1.096A1.511 1.511 0 0 1 73.578 6c.428 0 .793.152 1.096.455.303.303.455.668.455 1.096v5.606h1.864c.427 0 .79.152 1.088.455.299.303.448.669.448 1.096 0 .437-.15.808-.448 1.11a1.47 1.47 0 0 1-1.088.456h-1.864v7.5c0 1.978.994 2.967 2.982 2.967.428 0 .79.152 1.089.455.298.303.447.669.447 1.096 0 .437-.15.808-.447 1.11a1.47 1.47 0 0 1-1.089.456c-4.066 0-6.098-2.028-6.098-6.084v-7.5h-.701c-.418 0-.778-.152-1.081-.455a1.511 1.511 0 0 1-.455-1.111c0-.427.151-.793.455-1.096a1.477 1.477 0 0 1 1.08-.455h.001zm13.524 1.551v.298a8.544 8.544 0 0 1 2.43-1.372 8.14 8.14 0 0 1 2.804-.477c.437 0 .907.03 1.409.09s.964.166 1.387.32c.422.154.772.366 1.05.634.28.268.418.616.418 1.044 0 .219-.042.422-.126.611a1.73 1.73 0 0 1-.336.5c-.14.144-.303.256-.492.335a1.56 1.56 0 0 1-.611.12c-.19 0-.408-.055-.656-.165a5.489 5.489 0 0 0-2.043-.372c-.726 0-1.407.136-2.043.41a5.265 5.265 0 0 0-1.663 1.118 5.265 5.265 0 0 0-1.118 1.663 5.119 5.119 0 0 0-.41 2.042v6.8c0 .427-.152.793-.455 1.096a1.494 1.494 0 0 1-1.096.455 1.51 1.51 0 0 1-1.11-.455 1.494 1.494 0 0 1-.455-1.096V14.708c0-.427.151-.793.454-1.096a1.511 1.511 0 0 1 1.111-.455c.428 0 .793.152 1.096.455.303.303.455.669.455 1.096zm25.244 15.15c-.447 0-.815-.15-1.103-.448a1.563 1.563 0 0 1-.447-1.088 6.934 6.934 0 0 1-2.177 1.17 8.172 8.172 0 0 1-2.49.366 7.442 7.442 0 0 1-3.013-.62 7.984 7.984 0 0 1-2.475-1.677 7.984 7.984 0 0 1-1.677-2.475 7.442 7.442 0 0 1-.62-3.012v-7.366c0-.427.152-.793.456-1.096a1.511 1.511 0 0 1 1.11-.455c.428 0 .793.152 1.097.455.303.303.454.669.454 1.096v7.366c0 .646.122 1.253.366 1.82a4.7 4.7 0 0 0 .999 1.483 4.7 4.7 0 0 0 1.483.999c.575.245 1.195.37 1.82.365a4.52 4.52 0 0 0 1.804-.365 4.728 4.728 0 0 0 2.497-2.49c.246-.572.37-1.19.366-1.812v-7.366c0-.427.151-.793.454-1.096a1.511 1.511 0 0 1 1.111-.455c.428 0 .793.152 1.096.455.303.303.455.669.455 1.096v13.599c0 .427-.152.793-.455 1.096a1.511 1.511 0 0 1-1.11.455h-.001zm17.49-8.35a5.02 5.02 0 0 0-.41-2.021 5.305 5.305 0 0 0-2.78-2.796 5.04 5.04 0 0 0-2.043-.417c-.735 0-1.421.139-2.058.417a5.278 5.278 0 0 0-1.655 1.126 5.329 5.329 0 0 0-1.11 1.663 5.082 5.082 0 0 0-.41 2.027c0 .716.136 1.392.41 2.028.273.637.643 1.19 1.11 1.663.475.477 1.037.86 1.655 1.126.65.28 1.35.423 2.058.417a5.04 5.04 0 0 0 2.043-.417 5.305 5.305 0 0 0 2.78-2.796c.274-.631.41-1.305.41-2.02zm-5.233-8.35c1.978 0 3.723.61 5.234 1.833v-7.44c0-.448.147-.818.44-1.111.293-.293.663-.44 1.11-.44.438 0 .808.147 1.112.44.303.293.454.663.454 1.11v13.957c0 2.327-.815 4.295-2.445 5.905-1.65 1.63-3.618 2.446-5.905 2.446-2.306 0-4.274-.816-5.905-2.446-1.63-1.63-2.445-3.598-2.445-5.905 0-2.306.815-4.274 2.445-5.904s3.599-2.446 5.905-2.446v.001zm24.111 6.799a4.997 4.997 0 0 0-.753-1.499 5.358 5.358 0 0 0-2.624-1.916 5.2 5.2 0 0 0-3.303 0 5.446 5.446 0 0 0-1.476.753c-.447.323-.835.71-1.163 1.163a4.83 4.83 0 0 0-.73 1.499h10.05-.001zm-.67 5.204c.447 0 .817.146 1.11.44.293.293.44.663.44 1.11 0 .438-.15.81-.447 1.119-1.541 1.352-3.36 2.028-5.458 2.028-2.306 0-4.274-.816-5.904-2.446-1.63-1.63-2.446-3.598-2.446-5.905 0-2.306.815-4.274 2.446-5.904 1.63-1.63 3.598-2.446 5.904-2.446 2.287 0 4.255.815 5.905 2.446.815.805 1.427 1.702 1.834 2.691.408.99.611 2.06.611 3.213 0 .448-.151.818-.454 1.111-.304.294-.674.44-1.111.44h-11.81c.17.547.418 1.046.746 1.499a5.245 5.245 0 0 0 2.617 1.916c.536.18 1.097.27 1.662.268.656 0 1.258-.1 1.805-.298a4.942 4.942 0 0 0 1.52-.895 1.63 1.63 0 0 1 1.03-.387zm6.232 3.146V7.566c0-.438.147-.808.44-1.111.293-.303.664-.455 1.11-.455.448 0 .818.152 1.112.455.293.303.44.673.44 1.11v19.176h.715c.428 0 .793.152 1.096.455.303.303.455.673.455 1.11 0 .428-.152.794-.455 1.097a1.494 1.494 0 0 1-1.096.455h-2.281a1.47 1.47 0 0 1-1.089-.455 1.506 1.506 0 0 1-.447-1.096z"/></g></svg>
